icons/ui/icon_favorite_m_black.svg

<?xml version="1.0" encoding="UTF-8"?>
<svg width="24px" height="24px" viewBox="0 0 24 24" version="1.1" xmlns="http://www.w3.org/2000/svg" xmlns:xlink="http://www.w3.org/1999/xlink">
    <!-- Generator: Sketch 49 (51002) - http://www.bohemiancoding.com/sketch -->
    <title>icon_favorite_black</title>
    <desc>Created with Sketch.</desc>
    <defs></defs>
    <g id="set" stroke="none" stroke-width="1" fill="none" fill-rule="evenodd">
        <g id="mobile" transform="translate(-823.000000, -1125.000000)">
            <g id="Headings" transform="translate(64.000000, 77.000000)"></g>
            <g id="icon_tool_favorite__m__white" transform="translate(823.000000, 1125.000000)">
                <g id="art">
                    <rect id="Rectangle-path" x="0" y="0" width="24" height="24"></rect>
                    <path d="M12,1.49515269 C12.1952305,1.49515269 12.3914372,1.60741025 12.4646487,1.83192537 L14.7068714,8.73137259 C14.7712975,8.9334362 14.9587188,9.06912142 15.1705439,9.06912142 L22.4243346,9.06912142 C22.8967925,9.06912142 23.0939753,9.67433609 22.7113235,9.95253961 L16.8426935,14.2163746 C16.6718668,14.340346 16.5996315,14.5609565 16.6650337,14.7620439 L18.9062803,21.6614911 C19.0175617,22.0041207 18.7452151,22.3028235 18.4406555,22.3028235 C18.3449925,22.3028235 18.2464011,22.2735389 18.1556189,22.2071605 L12.2869889,17.9433255 C12.2010875,17.8808518 12.1005437,17.850591 12,17.850591 C11.8994563,17.850591 11.7989125,17.8818279 11.7130111,17.9433255 L5.84438113,22.2071605 C5.75359893,22.2735389 5.65500751,22.3028235 5.55934454,22.3028235 C5.2547849,22.3028235 4.9824383,22.0041207 5.09371971,21.6614911 L7.33496629,14.7620439 C7.40036852,14.5609565 7.32910937,14.340346 7.1573065,14.2163746 L1.28867652,9.95253961 C0.906024662,9.67433609 1.10320751,9.06912142 1.57566541,9.06912142 L8.82945606,9.06912142 C9.04128119,9.06912142 9.22870251,8.9334362 9.29410474,8.73234875 L11.5363275,1.83290152 C11.6085628,1.60741025 11.8047695,1.49515269 12,1.49515269 L12,1.49515269 Z M12,0.519 C11.3635484,0.519 10.804213,0.926055672 10.6070301,1.53127034 L8.47511263,8.09296873 L1.57566541,8.09296873 C0.939213854,8.09296873 0.379878362,8.5000244 0.183671671,9.10426292 C-0.0125350204,9.70947759 0.201242419,10.3674045 0.715674887,10.741271 L6.29731598,14.7962093 L4.16442235,21.3588838 C4.01799944,21.8108425 4.09218705,22.2881812 4.36843826,22.6688807 C4.64566562,23.0505564 5.09079125,23.278 5.55836839,23.278 C5.86683264,23.278 6.16358306,23.1803847 6.41738276,22.9958919 L12,18.9399774 L17.5816411,22.9958919 C17.8354408,23.1803847 18.1321912,23.278 18.4406555,23.278 C18.9082326,23.278 19.3533582,23.0505564 19.6305856,22.6688807 C19.9068368,22.2881812 19.9820006,21.8108425 19.8346015,21.3588838 L17.702684,14.7971854 L23.2843251,10.7422471 C23.7987576,10.3683807 24.012535,9.71045374 23.8163283,9.10523907 C23.6201216,8.5000244 23.0607861,8.09296873 22.4243346,8.09296873 L15.5248874,8.09296873 L13.3929699,1.53029419 C13.195787,0.92507952 12.6364516,0.519 12,0.519 L12,0.519 L12,0.519 Z" id="Shape" fill="#0B1F35"></path>
                </g>
            </g>
        </g>
    </g>
</svg>

<svg width="24" height="24" viewBox="0 0 24 24" xmlns="http://www.w3.org/2000/svg"><g fill="none" fill-rule="evenodd"><path d="M0 0h24v24H0z"/><path d="M12 1.495a.48.48 0 0 1 .465.337l2.242 6.9a.485.485 0 0 0 .464.337h7.253c.473 0 .67.605.287.884l-5.868 4.263a.488.488 0 0 0-.178.546l2.241 6.9a.49.49 0 0 1-.465.64.479.479 0 0 1-.285-.095l-5.869-4.264a.486.486 0 0 0-.574 0l-5.869 4.264a.479.479 0 0 1-.285.096.49.49 0 0 1-.465-.642l2.241-6.899a.487.487 0 0 0-.178-.546L1.29 9.953a.488.488 0 0 1 .287-.884H8.83c.212 0 .4-.136.465-.337l2.242-6.9A.478.478 0 0 1 12 1.496zm0-.976c-.636 0-1.196.407-1.393 1.012L8.475 8.093h-6.9a1.46 1.46 0 0 0-1.39 1.011 1.462 1.462 0 0 0 .532 1.637l5.581 4.055-2.133 6.563c-.146.452-.072.93.204 1.31a1.458 1.458 0 0 0 2.05.327L12 18.94l5.582 4.056c.253.184.55.282.859.282.467 0 .912-.227 1.19-.61.276-.38.351-.857.204-1.31l-2.132-6.56 5.581-4.056a1.462 1.462 0 0 0 .532-1.637 1.46 1.46 0 0 0-1.392-1.012h-6.9l-2.13-6.563A1.461 1.461 0 0 0 12 .52z" fill="#0B1F35"/></g></svg>
